packages/core/src/svgs/lpool.svg

<svg width="24" height="24" viewBox="0 0 24 24" fill="none" xmlns="http://www.w3.org/2000/svg">
<g clip-path="url(#clip0_31_13367)">
<path d="M0 0H24V24H0V0Z" fill="url(#paint0_linear_31_13367)"/>
<path d="M15.3558 16.6627L7.62012 8.82845L8.47726 7.30273L15.9901 15.0213L15.3558 16.6627Z" fill="url(#paint1_linear_31_13367)"/>
<path d="M8.14275 7.28564C8.25847 7.28564 8.3699 7.28993 8.48561 7.2985L7.81275 9.01707C7.24687 9.07979 6.71051 9.30224 6.26634 9.65844C5.82218 10.0146 5.48854 10.4899 5.30442 11.0286C5.12029 11.5674 5.09328 12.1474 5.22653 12.701C5.35979 13.2545 5.64781 13.7587 6.05695 14.1546C6.46608 14.5506 6.97944 14.8219 7.53705 14.9369C8.09466 15.052 8.67349 15.006 9.20592 14.8043C9.73836 14.6026 10.2024 14.2536 10.5439 13.798C10.8853 13.3424 11.0901 12.799 11.1342 12.2314L11.1856 12.1028V11.9999C11.1856 11.0493 11.4742 10.121 12.0134 9.33799C12.5526 8.55501 13.3169 7.95425 14.2051 7.61526C15.0933 7.27627 16.0635 7.21502 16.9872 7.43964C17.911 7.66425 18.7448 8.16413 19.3781 8.87309C20.0115 9.58205 20.4146 10.4667 20.5341 11.4098C20.6536 12.3529 20.4838 13.3101 20.0473 14.1546C19.6107 14.9992 18.9279 15.6912 18.0894 16.1391C17.2508 16.5869 16.296 16.7696 15.3513 16.6628L15.9899 15.0256L15.947 14.9999C16.5301 14.9826 17.0954 14.7956 17.5738 14.462C18.0522 14.1283 18.423 13.6624 18.6408 13.1213C18.8586 12.5802 18.9139 11.9874 18.7999 11.4153C18.686 10.8433 18.4078 10.3169 17.9994 9.90046C17.5909 9.48407 17.0699 9.19578 16.5002 9.07086C15.9304 8.94595 15.3366 8.98983 14.7914 9.19714C14.2463 9.40446 13.7733 9.7662 13.4305 10.2381C13.0877 10.71 12.8899 11.2716 12.8613 11.8542L12.857 11.8714V11.9999C12.857 12.9323 12.5806 13.8438 12.0625 14.619C11.5445 15.3943 10.8083 15.9985 9.94683 16.3554C9.08541 16.7122 8.13752 16.8055 7.22304 16.6236C6.30856 16.4417 5.46856 15.9927 4.80925 15.3334C4.14995 14.6741 3.70095 13.8341 3.51905 12.9196C3.33715 12.0052 3.43051 11.0573 3.78732 10.1959C4.14414 9.33443 4.74838 8.59816 5.52364 8.08014C6.2989 7.56213 7.21036 7.28564 8.14275 7.28564Z" fill="url(#paint2_linear_31_13367)"/>
</g>
<defs>
<linearGradient id="paint0_linear_31_13367" x1="4.46571" y1="4.16143" x2="29.2071" y2="32.58" gradientUnits="userSpaceOnUse">
<stop stop-color="#1A1E21"/>
<stop offset="1" stop-color="#06060A"/>
</linearGradient>
<linearGradient id="paint1_linear_31_13367" x1="8.87583" y1="8.84559" x2="15.7244" y2="15.6599" gradientUnits="userSpaceOnUse">
<stop offset="0.18" stop-color="#FAA31C"/>
<stop offset="0.49" stop-color="#312D2E"/>
<stop offset="0.89" stop-color="#FE4C38"/>
</linearGradient>
<linearGradient id="paint2_linear_31_13367" x1="4.31133" y1="13.5985" x2="19.8256" y2="11.9742" gradientUnits="userSpaceOnUse">
<stop offset="0.12" stop-color="#F9C213"/>
<stop offset="0.79" stop-color="#FF443B"/>
</linearGradient>
<clipPath id="clip0_31_13367">
<rect width="24" height="24" fill="white"/>
</clipPath>
</defs>
</svg>

<svg xmlns="http://www.w3.org/2000/svg" width="24" height="24" fill="none" viewBox="0 0 24 24"><g clip-path="url(#a)"><path fill="url(#b)" d="M0 0h24v24H0z"/><path fill="url(#c)" d="M15.356 16.663 7.62 8.828l.857-1.525 7.513 7.718z"/><path fill="url(#d)" d="M8.143 7.286q.17 0 .343.013l-.673 1.718a3 3 0 1 0 3.321 3.214l.052-.128V12a4.693 4.693 0 1 1 4.165 4.663l.639-1.637-.043-.026a3 3 0 1 0-3.086-3.146l-.004.017V12a4.713 4.713 0 1 1-4.714-4.714"/></g><defs><linearGradient id="b" x1="4.466" x2="29.207" y1="4.161" y2="32.58" gradientUnits="userSpaceOnUse"><stop stop-color="#1A1E21"/><stop offset="1" stop-color="#06060A"/></linearGradient><linearGradient id="c" x1="8.876" x2="15.724" y1="8.846" y2="15.66" gradientUnits="userSpaceOnUse"><stop offset=".18" stop-color="#FAA31C"/><stop offset=".49" stop-color="#312D2E"/><stop offset=".89" stop-color="#FE4C38"/></linearGradient><linearGradient id="d" x1="4.311" x2="19.826" y1="13.598" y2="11.974" gradientUnits="userSpaceOnUse"><stop offset=".12" stop-color="#F9C213"/><stop offset=".79" stop-color="#FF443B"/></linearGradient><clipPath id="a"><path fill="#fff" d="M0 0h24v24H0z"/></clipPath></defs></svg>
